X:7768
T:unknown
O:england
M:4/4
L:1/8
S:Kevin Ryan, Ennis
R:Reel
N:heard on radio played by flute & piano
K:D
DFAF ~E3F|EDFA d3e|fdAd fa{b}a2|abaf {a}gfeg|fd~d2 Acec|d2ec dAFA|GE~E2
G2Bd|cAGE {F}EDD2:||:dBAB df~f2|abaf gfef|df~f2 defb|afdf efge|fa~a2 fb{
c'}bf|afdf edBc|dBAF G2Bd|cAGE {F}EDD2:|


